X:14423
T:Rolling the the Ryegrass
S:unknown. photocopy
M:4/4
I:speed 300
K:D
dB |: A2 FA DAFA | DAFA BEEB | A2FA DAFA | ABde fddB :|
|:faag a2 af | gfga beeg | faag a2 af | (3efe de fd d2  |
faag a2af | gfga beeg | fgfe d2dB | ABde fdd2 :|
